images/sprite.svg

<?xml version="1.0" encoding="utf-8"?><svg viewBox="0 0 21 21" xmlns="http://www.w3.org/2000/svg" xmlns:xlink="http://www.w3.org/1999/xlink"><style>:root>svg{display:none}:root>svg:target{display:block}</style><svg viewBox="0 0 16 15" id="ic_location" xmlns="http://www.w3.org/2000/svg"><path fill-rule="evenodd" d="M15.412 6.981L9.238.769A1.776 1.776 0 0 0 6.819.764L.589 6.979a.593.593 0 0 0 .837.839l.471-.469v5.114a2.372 2.372 0 0 0 2.37 2.368H6.4a.592.592 0 0 0 .592-.591V9.412h2.074v4.828c0 .326.266.591.593.591h2.074a2.372 2.372 0 0 0 2.37-2.368.592.592 0 1 0-1.185 0c0 .653-.532 1.184-1.185 1.184h-1.482V8.82a.592.592 0 0 0-.592-.592H6.4a.593.593 0 0 0-.593.592v4.827h-1.54a1.185 1.185 0 0 1-1.185-1.184V6.184l-.001-.018 4.562-4.55a.592.592 0 0 1 .768.002l4.507 4.534v3.349a.592.592 0 1 0 1.185 0V7.345l.468.471a.59.59 0 0 0 .838.002.59.59 0 0 0 .003-.837z"/></svg><svg viewBox="0 0 21 21" id="ic_phone" xmlns="http://www.w3.org/2000/svg"><path fill-rule="evenodd" d="M19.601 9.906c-.033.004-.062.008-.095.008a.555.555 0 0 1-.551-.464 9.38 9.38 0 0 0-2.637-5.088 9.397 9.397 0 0 0-5.087-2.637.564.564 0 0 1-.46-.647.557.557 0 0 1 .642-.455 10.507 10.507 0 0 1 5.692 2.952 10.509 10.509 0 0 1 2.951 5.693.549.549 0 0 1-.455.638zM11.26 4.179a6.388 6.388 0 0 1 3.456 1.793 6.398 6.398 0 0 1 1.793 3.457.56.56 0 0 1-.46.646c-.033.004-.062.009-.095.009a.557.557 0 0 1-.551-.463 5.273 5.273 0 0 0-1.482-2.858 5.241 5.241 0 0 0-2.856-1.482.553.553 0 0 1-.451-.646.563.563 0 0 1 .646-.456zM7.551 7.868c-.306.311-.621.634-.96.944.252.559.6 1.11 1.117 1.764 1.068 1.313 2.182 2.327 3.407 3.106.12.074.261.144.41.219.103.054.211.108.318.165l1.309-1.303c.418-.419.906-.638 1.415-.638.513 0 .998.223 1.399.642l2.273 2.281c.418.415.637.907.637 1.42 0 .509-.215 1.006-.625 1.433-.178.186-.36.364-.538.534-.261.252-.509.489-.724.749-.004.009-.013.013-.017.021-.629.683-1.432 1.027-2.388 1.027-.083 0-.174-.004-.261-.009-1.42-.091-2.691-.625-3.643-1.076a19.474 19.474 0 0 1-6.486-5.081C2.7 12.27 1.698 10.593 1.027 8.784.754 8.047.398 6.921.497 5.712a3.036 3.036 0 0 1 .899-1.926l1.407-1.42.008-.008c.414-.398.903-.609 1.408-.609.505 0 .985.211 1.386.609.269.248.53.512.779.77.124.132.256.265.384.393l1.131 1.131c.869.869.869 1.996 0 2.865-.116.115-.232.236-.348.351zm-.439-2.426l-1.13-1.13c-.132-.137-.265-.269-.393-.402-.253-.26-.493-.505-.745-.74l-.013-.014c-.132-.132-.343-.289-.604-.289-.211 0-.426.104-.629.294L2.186 4.573a1.9 1.9 0 0 0-.571 1.23c-.062.757.079 1.56.464 2.591.625 1.69 1.568 3.263 2.98 4.965a18.378 18.378 0 0 0 6.11 4.786c.857.41 1.999.89 3.228.969.062.004.129.004.191.004.646 0 1.138-.211 1.556-.659.257-.302.53-.57.799-.828.178-.173.344-.33.505-.504.422-.439.422-.873-.004-1.296l-2.281-2.282-.008-.008c-.128-.141-.339-.302-.596-.302-.261 0-.484.169-.625.31l-1.416 1.416a.88.88 0 0 1-.629.286.902.902 0 0 1-.41-.103l-.049-.03c-.12-.075-.261-.145-.41-.219-.166-.083-.34-.169-.509-.277-1.329-.84-2.534-1.939-3.676-3.346l-.004-.004c-.63-.799-1.044-1.47-1.337-2.182l-.013-.037c-.074-.236-.141-.584.215-.94.005-.009.013-.013.021-.021.36-.323.691-.654 1.039-1.01.12-.116.236-.236.356-.356.439-.439.439-.844 0-1.284z"/></svg></svg>

<svg width="0" height="0" class="hidden">
  <symbol xmlns="http://www.w3.org/2000/svg" viewBox="0 0 12 9" id="ic_arr_ver">
    <path fill-rule="evenodd" clip-rule="evenodd" d="M0.292893 1.0858C0.683417 0.695277 1.31658 0.695277 1.70711 1.0858L6 5.37869L10.2929 1.0858C10.6834 0.695277 11.3166 0.695277 11.7071 1.0858C12.0976 1.47633 12.0976 2.10949 11.7071 2.50001L6 8.20712L0.292893 2.50001C-0.0976311 2.10949 -0.0976311 1.47633 0.292893 1.0858Z" fill="currentColor"></path>
  </symbol>
  <symbol xmlns="http://www.w3.org/2000/svg" viewBox="0 0 13 13" id="ic_check">
    <path d="M5.08576 12.8642L3.67155 14.2784L5.08576 15.6926L6.49997 14.2784L5.08576 12.8642ZM11.4496 3.67197L3.67155 11.45L6.49997 14.2784L14.278 6.5004L11.4496 3.67197ZM6.49997 11.45L1.5502 6.50022L-1.27823 9.32864L3.67155 14.2784L6.49997 11.45Z" fill="currentColor"></path>
  </symbol>
  <symbol xmlns="http://www.w3.org/2000/svg" xmlns:xlink="http://www.w3.org/1999/xlink" viewBox="0 0 16px 15px" id="ic_location">
    <path fill-rule="evenodd" d="M15.412,6.981 L9.238,0.769 C9.230,0.761 9.222,0.753 9.214,0.746 C8.539,0.140 7.521,0.139 6.844,0.741 C6.836,0.748 6.827,0.756 6.819,0.764 L0.589,6.979 C0.358,7.210 0.357,7.585 0.588,7.818 C0.820,8.049 1.195,8.049 1.426,7.818 L1.897,7.349 L1.897,12.463 C1.897,13.768 2.960,14.831 4.267,14.831 L6.400,14.831 C6.727,14.831 6.992,14.566 6.992,14.240 L6.992,9.412 L9.066,9.412 L9.066,14.240 C9.066,14.566 9.332,14.831 9.659,14.831 L11.733,14.831 C13.040,14.831 14.103,13.768 14.103,12.463 C14.103,12.135 13.838,11.871 13.510,11.871 C13.183,11.871 12.918,12.135 12.918,12.463 C12.918,13.116 12.386,13.647 11.733,13.647 L10.251,13.647 L10.251,8.820 C10.251,8.493 9.986,8.228 9.659,8.228 L6.400,8.228 C6.073,8.228 5.807,8.493 5.807,8.820 L5.807,13.647 L4.267,13.647 C3.613,13.647 3.082,13.116 3.082,12.463 L3.082,6.184 C3.082,6.179 3.081,6.173 3.081,6.166 L7.643,1.616 C7.865,1.428 8.190,1.429 8.411,1.618 L12.918,6.152 L12.918,9.501 C12.918,9.828 13.183,10.093 13.510,10.093 C13.838,10.093 14.103,9.828 14.103,9.501 L14.103,7.345 L14.571,7.816 C14.687,7.933 14.839,7.991 14.992,7.991 C15.143,7.991 15.294,7.934 15.409,7.818 C15.642,7.588 15.643,7.213 15.412,6.981 Z" fill="currentColor"></path>
  </symbol>
  <symbol xmlns="http://www.w3.org/2000/svg" xmlns:xlink="http://www.w3.org/1999/xlink" viewBox="0 0 21px 21px" id="ic_phone">
    <path fill-rule="evenodd" d="M19.601,9.906 C19.568,9.910 19.539,9.914 19.506,9.914 C19.236,9.914 19.001,9.724 18.955,9.450 C18.628,7.521 17.717,5.761 16.318,4.362 C14.919,2.966 13.160,2.052 11.231,1.725 C10.925,1.671 10.722,1.385 10.771,1.078 C10.825,0.776 11.111,0.569 11.413,0.623 C13.574,0.992 15.540,2.010 17.105,3.575 C18.669,5.140 19.688,7.107 20.056,9.268 C20.110,9.571 19.903,9.860 19.601,9.906 ZM11.260,4.179 C12.572,4.403 13.768,5.024 14.716,5.972 C15.664,6.921 16.285,8.118 16.509,9.429 C16.558,9.736 16.355,10.026 16.049,10.075 C16.016,10.079 15.987,10.084 15.954,10.084 C15.685,10.084 15.449,9.893 15.403,9.621 C15.217,8.536 14.708,7.549 13.921,6.763 C13.135,5.976 12.150,5.463 11.065,5.281 C10.759,5.231 10.560,4.938 10.614,4.635 C10.668,4.333 10.953,4.130 11.260,4.179 ZM7.551,7.868 C7.245,8.179 6.930,8.502 6.591,8.812 C6.843,9.371 7.191,9.922 7.708,10.576 C8.776,11.889 9.890,12.903 11.115,13.682 C11.235,13.756 11.376,13.826 11.525,13.901 C11.628,13.955 11.736,14.009 11.843,14.066 L13.152,12.763 C13.570,12.344 14.058,12.125 14.567,12.125 C15.080,12.125 15.565,12.348 15.966,12.767 L18.239,15.048 C18.657,15.463 18.876,15.955 18.876,16.468 C18.876,16.977 18.661,17.474 18.251,17.901 C18.073,18.087 17.891,18.265 17.713,18.435 C17.452,18.687 17.204,18.924 16.989,19.184 C16.985,19.193 16.976,19.197 16.972,19.205 C16.343,19.888 15.540,20.232 14.584,20.232 C14.501,20.232 14.410,20.228 14.323,20.223 C12.903,20.132 11.632,19.598 10.680,19.147 C8.188,17.942 6.007,16.232 4.194,14.066 C2.700,12.270 1.698,10.593 1.027,8.784 C0.754,8.047 0.398,6.921 0.497,5.712 C0.564,4.963 0.866,4.316 1.396,3.786 L2.803,2.366 C2.807,2.362 2.807,2.362 2.811,2.358 C3.225,1.960 3.714,1.749 4.219,1.749 C4.724,1.749 5.204,1.960 5.605,2.358 C5.874,2.606 6.135,2.870 6.384,3.128 C6.508,3.260 6.640,3.393 6.768,3.521 L7.899,4.652 C8.768,5.521 8.768,6.648 7.899,7.517 C7.783,7.632 7.667,7.753 7.551,7.868 ZM7.112,5.442 L5.982,4.312 C5.850,4.175 5.717,4.043 5.589,3.910 C5.336,3.650 5.096,3.405 4.844,3.170 C4.840,3.165 4.835,3.161 4.831,3.156 C4.699,3.024 4.488,2.867 4.227,2.867 C4.016,2.867 3.801,2.971 3.598,3.161 L2.186,4.573 C1.843,4.916 1.656,5.318 1.615,5.803 C1.553,6.560 1.694,7.363 2.079,8.394 C2.704,10.084 3.647,11.657 5.059,13.359 C6.768,15.400 8.826,17.011 11.169,18.145 C12.026,18.555 13.168,19.035 14.397,19.114 C14.459,19.118 14.526,19.118 14.588,19.118 C15.234,19.118 15.726,18.907 16.144,18.459 C16.401,18.157 16.674,17.889 16.943,17.631 C17.121,17.458 17.287,17.301 17.448,17.127 C17.870,16.688 17.870,16.254 17.444,15.831 L15.163,13.549 C15.159,13.545 15.159,13.545 15.155,13.541 C15.027,13.400 14.816,13.239 14.559,13.239 C14.298,13.239 14.075,13.408 13.934,13.549 L12.518,14.965 C12.448,15.036 12.233,15.251 11.889,15.251 C11.752,15.251 11.620,15.218 11.479,15.148 C11.463,15.139 11.446,15.127 11.430,15.118 C11.310,15.043 11.169,14.973 11.020,14.899 C10.854,14.816 10.680,14.730 10.511,14.622 C9.182,13.782 7.977,12.683 6.835,11.276 L6.831,11.272 C6.201,10.473 5.787,9.802 5.494,9.090 C5.489,9.078 5.485,9.065 5.481,9.053 C5.407,8.817 5.340,8.469 5.696,8.113 C5.701,8.104 5.709,8.100 5.717,8.092 C6.077,7.769 6.408,7.438 6.756,7.082 C6.876,6.966 6.992,6.846 7.112,6.726 C7.551,6.287 7.551,5.882 7.112,5.442 Z" fill="currentColor"></path>
  </symbol>
</svg>
